src/assets/icons/weeks,fancy,02.svg

<svg width="48" height="48" viewBox="0 0 48 48" fill="none" xmlns="http://www.w3.org/2000/svg">
<rect opacity="0.2" x="4" y="6" width="40" height="40" rx="4" fill="black"/>
<path d="M16.8322 41H31.3493V37.4801H22.7981V37.3409L25.7711 34.4276C29.9572 30.6094 31.0808 28.7003 31.0808 26.3835C31.0808 22.8537 28.1973 20.358 23.8322 20.358C19.5566 20.358 16.6234 22.9134 16.6333 26.9105H20.72C20.71 24.9616 21.943 23.7685 23.8024 23.7685C25.5922 23.7685 26.9245 24.8821 26.9245 26.6719C26.9245 28.2926 25.9302 29.4062 24.0808 31.1861L16.8322 37.8977V41Z" fill="black"/>
<g opacity="0.4">
<path d="M10 4C10 2.89543 10.8954 2 12 2C13.1046 2 14 2.89543 14 4V8C14 9.10457 13.1046 10 12 10C10.8954 10 10 9.10457 10 8V4Z" fill="black"/>
<path d="M34 4C34 2.89543 34.8954 2 36 2C37.1046 2 38 2.89543 38 4V8C38 9.10457 37.1046 10 36 10C34.8954 10 34 9.10457 34 8V4Z" fill="black"/>
</g>
<path fill-rule="evenodd" clip-rule="evenodd" d="M10 6.00869C7.52043 6.04456 6.11466 6.22849 5.17157 7.17157C4 8.34315 4 10.2288 4 14V16H44V14C44 10.2288 44 8.34315 42.8284 7.17157C41.8853 6.22849 40.4796 6.04456 38 6.00869V8C38 9.10457 37.1046 10 36 10C34.8954 10 34 9.10457 34 8V6H14V8C14 9.10457 13.1046 10 12 10C10.8954 10 10 9.10457 10 8V6.00869Z" fill="black"/>
</svg>

<svg xmlns="http://www.w3.org/2000/svg" width="48" height="48" fill="none" viewBox="0 0 48 48">
  <rect width="40" height="40" x="4" y="6" fill="#000" opacity=".2" rx="4"/>
  <path fill="#000" d="M16.832 41H31.35v-3.52H22.8v-.14l2.972-2.912c4.186-3.819 5.31-5.728 5.31-8.044 0-3.53-2.884-6.026-7.249-6.026-4.275 0-7.209 2.555-7.199 6.552h4.087c-.01-1.948 1.223-3.142 3.082-3.142 1.79 0 3.122 1.114 3.122 2.904 0 1.62-.994 2.734-2.843 4.514l-7.249 6.712V41z"/>
  <g opacity=".4">
    <path fill="#000" d="M10 4a2 2 0 114 0v4a2 2 0 11-4 0V4zM34 4a2 2 0 114 0v4a2 2 0 11-4 0V4z"/>
  </g>
  <path fill="#000" fill-rule="evenodd" d="M10 6.009c-2.48.036-3.885.22-4.828 1.163C4 8.343 4 10.229 4 14v2h40v-2c0-3.771 0-5.657-1.172-6.828-.943-.944-2.348-1.127-4.828-1.163V8a2 2 0 11-4 0V6H14v2a2 2 0 11-4 0V6.009z" clip-rule="evenodd"/>
</svg>
